X:1
T:Quoniam non est - Schutz
T:#
%%score [ 1 2 3 ] 4
L:1/8
Q:1/4=100
M:2/2
K:F
V:1 treble nm="Alto" snm="A"
V:2 treble-8 nm="Tenor" snm="T"
V:3 bass nm="Bass" snm="B"
V:4 bass nm="Continuo"
V:1
"^Quoniam non est in morte, SWV 86""^Heinrich Schütz\n(1585-1672)""^Psalm 6: 6-8 (Vulgate)" z8 | %1
w: |
 z8 | z8 | z8 | z8 | z8 | z2 F3 EDC |[M:2/2] B,4 B,2 G,2 | C2 A,2 B,3 C | A,8 | z8 | z2 G3 FED | %12
w: |||||in in- fer- no|ti- bi quis|con- fi- te- bi-|tur,||in in- fer- no|
 ^C4 D2 D2 | E2 _C2 D3 E | ^C4 z2 E2- | E2 (^CD E^FGE) | z4 F4- | F4 _E2 D2 | _E8- | E4 F2 G2 | %20
w: ti- bi quis|con- fi- te- bi-|tur? La\-|* bo\- * * * * *|ra\-|* vi in|ge\-|* mi- tu|
 D8- | D8 | D8 | z2 DD EEED | E2 F2 G4- | G4 A2 F2 | (E2 F4 E2) | F8 | z8 | z4 z2 EE | EEED E4- | %31
w: me\-||o,|et ri- ga- bo stra- tum|me- um la\-|* chry- mis|me\- * *|is,||et ri-|ga- bo stra- tum me\-|
 E2 F2 G4- | G4 A2 F2 | E8 | D4 z2 DD | DDDC E2 ^F2 | G4 ^F2 E2 | (^F2 G4 F2) | G8- | G8 | G8 | %41
w: * um la\-|* chry- mis|me-|is, et ri-|ga- bo stra- tum me- um|la- chry- mis|me\- * *|is,|||
 z4 z G^FG | E4 C2 C2 | (FGFE D_EDC | B,CB,A, G,2) B,2 | A,4 =B,4 | ^C4 D4- | D4 ^C4 | %48
w: tur- ba- tus|est a fu-|ro\- * * * * * * *|* * * * * re|o- cu-|lus me\-|* us,|
 z2 F2 _E2 D2 | _E8 | D8 | z2 _ED CCF=E | DDGF _EEFF | G4 F2 (F2- | F2 _E2 E2 DC | D8) | %56
w: in- ve- te-|ra-|vi|in- ter o- mnes i- ni-|mi- cos, in- ter o- mnes i- ni-|mi- cos me\-|||
 C2 GF E2 E2 | z2 FE DDGF | EEAG FFGF | EEFE DDEE | A,4 G,4 | z4 z2 GF | E2 E2 z4 | z2 CC G4- | %64
w: os, in- ter o- mnes,|in- ter o- mnes i- ni-|mi- cos, in- ter o- mnes i- ni-|mi- cos, in- ter o- mnes i- ni-|mi- cos,|in- ter|o- mnes|i- ni- mi\-|
 G4 F2 (F2- | F2 ED E4) | F8- | F8[Q:1/4=99][Q:1/4=99][Q:1/4=97] | %68
w: * cos me\-||os.||
[Q:1/4=95] F8[Q:1/4=93][Q:1/4=92] |[Q:1/4=91] F8[Q:1/4=90][Q:1/4=90][Q:1/4=89] | %70
w: ||
[Q:1/4=85] !fermata!F8 |] %71
w: |
V:2
 z8 | z8 | z8 | z8 | z8 | z8 | z2 d3 cBA |[M:2/2][K:treble-8] G4 G2 B2 | A2 F2 G3 A | ^F8 | z8 | %11
w: ||||||in in- fer- no|ti- bi quis|con- fi- te- bi-|tur,||
 z2 B3 AGF | E4 F2 F2 | G2 E2 F3 G | E8 | z4 z2 ^c2- | c2 (A=B ^cdec) | z4 d4- | d4 c2 =B2 | c8- | %20
w: in in- fer- no|ti- bi quis|con- fi- te- bi-|tur?|La\-|* bo\- * * * * *|ra\-|* vi in|ge\-|
 c4 d2 _e2 | =B8 | =B8 | z2 GG GGG^F | G2 A2 B4- | B4 c2 A2 | G8 | F4 z2 A2 | AA/A/AA/A/ AAAG | %29
w: * mi- tu|me-|o,|et ri- ga- bo stra- tum|me- um la\-|* chry- mis|me-|is, la-|va- bo per sin- gu- las no- ctes le- ctum|
 A4 A4 | z2 ^cc ccc=B | ^c2 d2 e4- | e4 f2 d2 | (^c2 d4 c2) | d4 z2 AA | AAAG B2 c2 | B4 A2 G2 | %37
w: me- um,|et ri- ga- bo stra- tum|me- um la\-|* chry- mis|me\- * *|is, et ri-|ga- bo stra- tum me- um|la- chry- mis|
 (A2 B2 A4) | G8 | z2 c3 =B A2 | (=B2 c4 B2) | c8 | z c=Bc A4- | A2 GA (BcBA | G3 F/E/) D2 E2 | %45
w: me\- * *|is,|la- chry- mis|me\- * *|is,|tur- ba- tus est|* a fu- ro\- * * *|* * * * re|
 ^F4 G2 G2 | =F8 | E8 | z4 z2 B2 | A2 G2 A4 | B4 z2 BA | GGcB AAdc | BB_ed c2 B2 | z2 d2 c2 d2- | %54
w: o- cu- lus|me-|us,|in-|ve- te- ra-|vi in- ter|o- mnes i- ni- mi- cos, in- ter|o- mnes i- ni- mi- cos,|i- mi- mi\-|
 d2 c2 (c4- | c2 =BA B4) | c4 z2 c_B | AAdc =BBed | ccfe dded | ccdc =BBcc | d4 c2 (c2- | %61
w: * cos me\-||os, in- ter|o- mnes i- ni- mi- cos, in- ter|o- mnes i- ni- mi- cos, in- ter|o- mnes i- ni- mi- cos, i- ni-|mi- cos me\-|
 c2 =BA B4) | c4 z4 | z4 z2 cB | A2 A2 z4 | z2 GG c4- | c4 B2 (B2- | B2 AG A4) | B8 | c8 | %70
w: |os,|in- ter|o- mnes|i- ni- mi\-|* cos me\-||os,|me-|
 !fermata!d8 |] %71
w: os.|
V:3
 z8 | G,3 G, G,4 | z G,^F,E, F,2 E,F, | G,8 | E,2 =F,4 E,2 | F,2 F,3 E,D,C, | B,,4 B,,2 B,,2 | %7
w: |Quo- ni- am|non est in mor- te qui|me-|mor sit tu-|i, in in- fer- no|ti- bi quis|
[M:2/2] _E,4 G,4 | F,4 _E,4 | D,8 | z2 D,3 C,B,,A,, | G,,4 G,,2 G,,2 | A,,4 D,4 | C,4 B,,4 | A,,8 | %15
w: con- fi-|te- bi-|tur,|in in- fer- no|ti- bi quis|con- fi-|te- bi-|tur?|
 z8 | z8 | z8 | z8 | z8 | z8 | z2 G,2 G,G,/G,/G,G,/G,/ | G,G,G,^F, G,4 | G,4 z4 | z4 z2 C,2 | %25
w: ||||||la- va- bo per sin- gu- las|no- ctes le- ctum me-|um,|la-|
 C,C,/C,/C,C,/C,/ C,C,C,=B,, | C,4 C,2 C,C, | A,,A,,A,,G,, A,,2 =B,,2 | ^C,4 D,2 _B,,2 | A,,8 | %30
w: va- bo per sin- gu- las no- ctes le- ctum|me- um, et ri-|ga- bo stra- tum me- um|la- chry- mis|me-|
 A,,8 | z4 z2 A,2 | A,A,/A,/A,A,/A,/ A,A,A,^G, | A,4 A,2 A,A, | D,D,D,^C, D,2 E,2 | ^F,4 G,2 A,2 | %36
w: is,|la-|va- bo per sin- gu- las no- ctes le- ctum|me- um, et ri-|ga- bo stra- tum me- um|la- chry- mis|
 D,8 | D,4 z2 D,D, | =B,,B,,B,,A,, C,2 D,2 | _E,4 D,2 C,2 | (G,F,/=E,/ D,/C,/=B,,/A,,/ G,,4) | %41
w: me-|is, et ri-|ga- bo stra- tum me- um|la- chry- mis|me\- * * * * * * *|
 C,8 | z4 z F,E,F, | D,2 E,F, G,4- | G,4 G,,4 | D,4 C,2 =B,,2 | A,,8 | A,,8 | z2 D,2 C,2 B,,2 | %49
w: is,|tur- ba- tus|est a fu- ro\-|* re|o- cu- lus|me-|us.|in- ve- te-|
 C,8 | B,,8 | z8 | z8 | z8 | z8 | z4 z2 G,F, | E,2 E,2 z4 | F,E,D,D, G,F,E,E, | A,G,F,F, B,A,G,G, | %59
w: ra-|vi|||||in- ter|o- mnes,|in- ter o- mnes i- ni- mi- cos,|in- ter o- mnes i- ni- mi- cos,|
 A,G,F,F, G,F, E,2 | F,4 z4 | z2 F,F, G,4- | G,4 F,2 (F,2- | F,2 E,D, E,4) | F,8 | z4 z2 CB, | %66
w: in- ter o- mnes i- ni- mi-|cos,|i- ni- mi\-|* cos me\-||os,|in- ter|
 A,2 A,2 z4 | z2 F,F, C4- | C4 B,2 (B,2- | B,2 A,G, A,4) | !fermata!B,8 |] %71
w: o- mnes,|i- ni- mi\-|* cos me\-||os.|
V:4
 D,3 D, D,4 | C,4 =B,,2 C,2 | D,8 | =B,,2 C,4 B,,2 | C,6- C,2 | F,,4 _B,,4 | B,,8 | %7
w: |* 6 *|||3~~~~~~4 3|||
w: |||||||
[M:2/2] _E,4 G,4 | F,4 _E,4 | D,8 | D,2 D,3 C,B,,A,, | G,,8 | A,,4 D,4 | C,4 B,,4 | A,,8 | %15
w: ||||||||
w: ||||||||
 A,,4 A,,4 | A,,4 A,,4 | B,,8 | G,,8- | G,,8 | G,,8 | G,,8 | G,3 ^F, G,4 | G,4 C,4 | C,8 | %25
w: |* 6||6|6|4|||||
w: ||||4||||||
 C,4 C,3 =B,, | C,6- C,2 | F,,4 A,,2 =B,,2 | ^C,4 D,2 _B,,2 | A,,8 | A,,8 | A,,8 | A,4 A,3 ^G, | %33
w: * 6 *|3~~~~4 3||6 * 6||||* 6 *|
w: ||||||||
 A,6- A,2 | D,3 ^C, D,2 E,2 | ^F,4 G,2 A,2 | D,8 | D,6 D,2 | =B,,3 A,, C,2 D,2 | _E,4 D,2 C,2 | %40
w: 3~~~~4 3||6 6 6|6|3~~~~~4 3|6 * * *|6 6 6|
w: |||4||||
 G,6- G,2 | C,8 | C,4 F,2 E,F, | D,2 E,F, G,4- | G,4 G,,4 | D,4 C,2 =B,,2 | A,,8 | A,,4- A,,4 | %48
w: 3~~~~~~~~~~~~~~4 3|||||* * 6|6|4 3|
w: ||||||||
 D,4 C,2 B,,2 | C,4- C,4 | B,,4 B,,4 | _E,2 C,2 F,2 D,2 | G,F, _E,2- E,2 D,C, | B,,4 A,,4 | %54
w: |6~~~~~~~5 6|||* * * 6 6 *|6 6|
w: ||||||
 G,,4- G,,4 | G,,4 G,,4 | C,6 C,2 | F,2 D,2 G,2 E,2 | A,2 F,2 B,2 G,2 | A,2 F,2 G,2 E,2 | F,4 E,4 | %61
w: 3 4|4 3|||* * * 6|* 6 * 6|6 6|
w: |||||||
 D,4- D,4 | C,4- C,4 | C,4 C,4 | F,,4 F,4 | G,4- G,4 | F,4- F,4 | F,4 F,4 | D,4 B,,4 | F,4- F,4 | %70
w: * 4|3 4|* 3||* 4|3 4|* 3|6 *|4 3|
w: |||||||||
 !fermata!B,,8 |] %71
w: |
w: |

